www/images/menu.svg

<svg fill="none" height="75" viewBox="0 0 75 75" width="75" xmlns="http://www.w3.org/2000/svg"><g fill="#fff"><path d="m47 49c0-1.1046.8954-2 2-2h5c1.1046 0 2 .8954 2 2v5c0 1.1046-.8954 2-2 2h-5c-1.1046 0-2-.8954-2-2z"/><path d="m33 49c0-1.1046.8954-2 2-2h5c1.1046 0 2 .8954 2 2v5c0 1.1046-.8954 2-2 2h-5c-1.1046 0-2-.8954-2-2z"/><path d="m19 49c0-1.1046.8954-2 2-2h5c1.1046 0 2 .8954 2 2v5c0 1.1046-.8954 2-2 2h-5c-1.1046 0-2-.8954-2-2z"/><path d="m47 35c0-1.1046.8954-2 2-2h5c1.1046 0 2 .8954 2 2v5c0 1.1046-.8954 2-2 2h-5c-1.1046 0-2-.8954-2-2z"/><path d="m33 35c0-1.1046.8954-2 2-2h5c1.1046 0 2 .8954 2 2v5c0 1.1046-.8954 2-2 2h-5c-1.1046 0-2-.8954-2-2z"/><path d="m19 35c0-1.1046.8954-2 2-2h5c1.1046 0 2 .8954 2 2v5c0 1.1046-.8954 2-2 2h-5c-1.1046 0-2-.8954-2-2z"/><path d="m47 21c0-1.1046.8954-2 2-2h5c1.1046 0 2 .8954 2 2v5c0 1.1046-.8954 2-2 2h-5c-1.1046 0-2-.8954-2-2z"/><path d="m33 21c0-1.1046.8954-2 2-2h5c1.1046 0 2 .8954 2 2v5c0 1.1046-.8954 2-2 2h-5c-1.1046 0-2-.8954-2-2z"/><path d="m19 21c0-1.1046.8954-2 2-2h5c1.1046 0 2 .8954 2 2v5c0 1.1046-.8954 2-2 2h-5c-1.1046 0-2-.8954-2-2z"/></g></svg>

<svg width="75" height="75" viewBox="0 0 75 75" fill="none" xmlns="http://www.w3.org/2000/svg">
<path d="M47 49C47 47.8954 47.8954 47 49 47H54C55.1046 47 56 47.8954 56 49V54C56 55.1046 55.1046 56 54 56H49C47.8954 56 47 55.1046 47 54V49Z" fill="white"/>
<path d="M33 49C33 47.8954 33.8954 47 35 47H40C41.1046 47 42 47.8954 42 49V54C42 55.1046 41.1046 56 40 56H35C33.8954 56 33 55.1046 33 54V49Z" fill="white"/>
<path d="M19 49C19 47.8954 19.8954 47 21 47H26C27.1046 47 28 47.8954 28 49V54C28 55.1046 27.1046 56 26 56H21C19.8954 56 19 55.1046 19 54V49Z" fill="white"/>
<path d="M47 35C47 33.8954 47.8954 33 49 33H54C55.1046 33 56 33.8954 56 35V40C56 41.1046 55.1046 42 54 42H49C47.8954 42 47 41.1046 47 40V35Z" fill="white"/>
<path d="M33 35C33 33.8954 33.8954 33 35 33H40C41.1046 33 42 33.8954 42 35V40C42 41.1046 41.1046 42 40 42H35C33.8954 42 33 41.1046 33 40V35Z" fill="white"/>
<path d="M19 35C19 33.8954 19.8954 33 21 33H26C27.1046 33 28 33.8954 28 35V40C28 41.1046 27.1046 42 26 42H21C19.8954 42 19 41.1046 19 40V35Z" fill="white"/>
<path d="M47 21C47 19.8954 47.8954 19 49 19H54C55.1046 19 56 19.8954 56 21V26C56 27.1046 55.1046 28 54 28H49C47.8954 28 47 27.1046 47 26V21Z" fill="white"/>
<path d="M33 21C33 19.8954 33.8954 19 35 19H40C41.1046 19 42 19.8954 42 21V26C42 27.1046 41.1046 28 40 28H35C33.8954 28 33 27.1046 33 26V21Z" fill="white"/>
<path d="M19 21C19 19.8954 19.8954 19 21 19H26C27.1046 19 28 19.8954 28 21V26C28 27.1046 27.1046 28 26 28H21C19.8954 28 19 27.1046 19 26V21Z" fill="white"/>
</svg>
